packages/tokens/icons/relevance/size32Px.svg

<svg viewBox="0 0 32 32" fill="none" xmlns="http://www.w3.org/2000/svg" width="1em" height="1em"><path d="M17.8333 10.813C17.2599 10.6103 16.6428 10.5 16 10.5C12.9624 10.5 10.5 12.9624 10.5 16C10.5 19.0376 12.9624 21.5 16 21.5C19.0376 21.5 21.5 19.0376 21.5 16C21.5 15.3572 21.3897 14.7401 21.187 14.1667" stroke="currentColor" stroke-linecap="round"/><path d="M18.85 6.93491C17.9503 6.65234 16.9929 6.5 16 6.5C10.7533 6.5 6.5 10.7533 6.5 16C6.5 21.2467 10.7533 25.5 16 25.5C21.2467 25.5 25.5 21.2467 25.5 16C25.5 15.0071 25.3477 14.0497 25.0651 13.15" stroke="currentColor" stroke-linecap="round"/><path d="M20.8214 3.38643C19.3241 2.81374 17.6987 2.5 16 2.5C8.54416 2.5 2.5 8.54416 2.5 16C2.5 23.4558 8.54416 29.5 16 29.5C23.4558 29.5 29.5 23.4558 29.5 16C29.5 14.3013 29.1863 12.6759 28.6136 11.1786" stroke="currentColor" stroke-linecap="round"/><path d="M27.515 4.88054C27.3551 4.83207 27.23 4.70697 27.1816 4.54711L26.6707 2.862C26.5779 2.55596 26.1391 2.38743 25.803 2.72354L27.515 4.88054ZM27.515 4.88054L29.2001 5.3914C29.5061 5.48419 29.6747 5.92297 29.3386 6.25907L25.437 10.1607C25.2486 10.3491 24.9892 10.3844 24.8039 10.2964L22.7433 9.31887L21.7657 7.25824C21.7449 7.21425 21.7389 7.18423 21.7389 7.15445C21.7391 7.12193 21.7467 7.05963 21.795 6.95374C21.8981 6.7271 22.1514 6.37523 22.7071 5.81949L25.803 2.72354L27.515 4.88054Z" stroke="currentColor" stroke-linejoin="round"/><path d="M16 15.8916L26.7929 5.09869" stroke="currentColor" stroke-linecap="round"/></svg>

<svg xmlns="http://www.w3.org/2000/svg" fill="none" viewBox="0 0 32 32" width="1em" height="1em"><path stroke="currentColor" stroke-linecap="round" d="M17.833 10.813a5.5 5.5 0 1 0 3.354 3.354"/><path stroke="currentColor" stroke-linecap="round" d="M18.85 6.935A9.497 9.497 0 0 0 16 6.5a9.5 9.5 0 1 0 9.5 9.5c0-.993-.152-1.95-.435-2.85"/><path stroke="currentColor" stroke-linecap="round" d="M20.821 3.386A13.468 13.468 0 0 0 16 2.5C8.544 2.5 2.5 8.544 2.5 16S8.544 29.5 16 29.5 29.5 23.456 29.5 16c0-1.699-.314-3.324-.886-4.821"/><path stroke="currentColor" stroke-linejoin="round" d="M27.515 4.88a.5.5 0 0 1-.333-.333l-.511-1.685c-.093-.306-.532-.475-.868-.138l1.712 2.157Zm0 0 1.685.511c.306.093.475.532.139.868l-3.902 3.902a.567.567 0 0 1-.633.135l-2.06-.977-.978-2.06a.23.23 0 0 1-.027-.105c0-.032.008-.094.056-.2.103-.227.356-.579.912-1.135l3.096-3.095 1.712 2.157Z"/><path stroke="currentColor" stroke-linecap="round" d="M16 15.892 26.793 5.099"/></svg>
